X:1
T:Frauenliebe und Leben, Op.42
T:Helft mir, ihr Schwestern
T:5. Helft mir, ihr Schwestern
T:Robert Schumann
T:Frauenliebe und Leben, Op.42
T:Adelbert von Chamisso
T:OpenScore (CC0)
T:OpenScore (CC0)
T:OpenScore (CC0)
C:Robert Schumann
Z:Adelbert von Chamisso
Z:OpenScore (CC0)
%%score 1 { ( 2 4 ) | ( 3 5 ) }
L:1/8
Q:1/4=140
M:4/4
K:Bb
V:1 treble nm="Voice"
V:2 treble nm="Piano"
V:4 treble 
V:3 bass 
V:5 bass 
V:1
"^Ziemlich schnell" z8 | z8 |!mf! F2 F F G3 F | F2 F F d3 B | (d2 c) B (dc) A F | (B2 A) G F2 z2 | %6
w: ||Helft mir, ihr Schwest- ern,|freund- lich mich schmück- en,|dient * der Glück- * li- chen|heu- * te, mir,|
 F2 F F G3 F | F2 F F d3 B | (d2 c) B (dc) F G | A3 G F2 z2 | F2 F F G3 F | A2 A A c3 B | %12
w: win- det ge- schäf- tig|mir um die Stir- ne|noch * der blü- * hen- den|Myr- te Zier.|Als ich be- frie- digt,|freu- di- gen Her- zens,|
 e2 e d c2 B B | (A2 B) G A4 | B2 B B c2 B2 | d2 d d f2 e2 | g3 f e2 d d | c2 d B c4 | %18
w: sonst dem Ge- lieb- ten im|Ar- * me lag,|im- mer noch rief er,|Sehn- sucht im Her- zen,|un- ge- dul- dig den|heu- ti- gen Tag.|
!mf! F2 F F G3 F | F2 F F d3 B | (d2 c) B (dc) A F | (B2 A) G F2 z2 | F2 F F G3 F | F2 F F d3 B | %24
w: Helft mir, ihr Schwe- stern,|helft mir ver- scheu- chen|ei- * ne thö- * rig- te|Ban- * gig- keit;|dass ich mit kla- rem|Aug' ihn emp- fan- ge,|
 (!>!d2 c) B (dc) F G | A2 G2 F2 z2 | F2 F F c3 F | G2 G G d3 G | G2 G G e3 d | %29
w: ihn, * die Quel- * le der|Freu- dig- keit.|Bist, mein Ge- lieb- ter,|du mir er- schie- nen,|gibst du mir, Son- ne,|
 (!turn!c2 d) _B c2 z2 | G2 G G d3 G | G2 G G =e3 A |!<(! A2 A A f2 _e!<)! e | (d2 c) B f4- | f8 | %35
w: dei- * nen Schein?|lass mich in An- dacht,|lass mich in De- mut,|lass mich ver- nei- gen dem|Her- * ren mein.|_|
 z8 |!p! F2 F F G3 F | F2 F F d3 B | d2 c B (dc) A F | (B2 A) G F2 z2 | %40
w: |Streu- et ihm, Schwest- ern,|streu- et ihm Blu- men,|brin- get ihm kno- * spen- de|Ro- * sen dar.|
!p! B2[Q:1/4=135]"^ritard." _A _G[Q:1/4=130] (BA)[Q:1/4=125] (F_D) | %41
w: A- ber euch, Schwe- * stern, *|
[Q:1/4=120] _G2 F[Q:1/4=110] =E E2 F2 |[Q:1/4=140]"^a tempo" F2 ^F2 G2 =A B | d2 c2 B4 | %44
w: grüss' ich mit Weh- mut,|freu- dig schei- dend aus|eu- rer Schar,|
!p! F3 F d2 B B |[Q:1/4=130]"^ritard." F2 D2 B,4 |[Q:1/4=125] z8 |[Q:1/4=120] z8 |[Q:1/4=115] z8 | %49
w: freu- dig schei- dend aus|eu- rer Schar.||||
[Q:1/4=110] z8 |[Q:1/4=105] z8 | z8 |] %52
w: |||
V:2
!mf! ([DF]Bdf dBG>F) | ([DF]Bdf dBG>F) | ([DF]Bdf dBG>F) | ([DF]Bdf dBG>F) | ([DF]FB>d) (dcAF) | %5
 (B2 AG) (BAGF) | ([=DF]Bdf dBG>F) | ([DF]Bdf dBG>F) | (d2 cB dcFG | A2 G2 F2) z2 | F6 F2 | %11
 (A4 B2) z2 | (e2 ed c2 B2 | A2 BG A4 | B6) B2 | (d4 e2) z2 | (g3 f e2 d2 | c2 d2 c4) | %18
 ([DF]Bdf dBG>F) | ([DF]Bdf dBG>F) | ([DF]FB>d) (dcAF) | (B2!<(! AG!<)! BAGF) | ([=DF]Bdf dBG>F) | %23
 ([DF]Bdf dBG>F) | (d2 cB dcFG | A2 G2 F2) z2 | %26
!p! (.[A,CF].[A,CF].[A,CF].[A,CF]) (.[A,CF].[A,CF].[A,CF].[A,CF]) | %27
 [=B,FG][B,FG][B,FG][B,FG] [B,DG][B,DG][B,DG][B,DG] | %28
 [CEG][CEG][=B,FG][B,FG] [CEG][CEG][B,FG][B,FG] | [CEG][CEG][_B,DG][B,G] [B,CF][B,CF][A,CF][A,CF] | %30
 [=B,DG][B,DG][B,DG][B,DG] [B,DG][B,DG][B,DG][B,DG] | [CG][CG][CG][CG] [^C=EA][CEA][CEA][CEA] | %32
!<(! [DFA][DFA][^CGA][CGA] [DFA][DFA][_EFA][EFA]!<)! | %33
 [DFB][DFB][DFB][DFB]!>(! [CFA][CFA][CFA][CFA]!>)! |!p! ([DF]Bdf dBG>F) | ([DF]Bdf dBG>F) | %36
 ([DF]Bdf dBG>F) | ([DF]Bdf dBG>F) | ([DF]FB>d) (dcAF) | (B2 AG) (BAGF) | %40
!p! (B2"^ritard." _A_G BAF_D) | (_G2 F=E) (E2 F2) | F2 ^F2 =G2 =AB | (d2 c2 (B4) | BFE>D) (DFBd | %45
"^ritard." B F2 D)!p! [DF]2 [DF]>[DF] | ([Dd]2 [DF]2) [DF]2 [DF]>[DF] | %47
 ([Dd]2 [DB]2)"_dim." !>![Dd]2 [Dc][DB] | ([Ed]cAF) B2 AG | BAGF B4 | z8 | x2 z2 z4 |] %52
V:3
"_Immer mit Pedal"!ped!{/B,,} (F,B,DF DB,G,>F,)!ped-up! |!ped! ([B,,F,]B,DF DB,G,>F,)!ped-up! | %2
!ped! ([B,,F,]B,DF DB,G,>F,)!ped-up! |!ped! ([B,,F,]B,DF DB,G,>F,)!ped-up! | %4
!ped! ([B,,F,]B, D>F)!ped-up!!ped! (!>![F,F]ECA,)!ped-up! | %5
!ped! F,B,[I:staff -1]_D=E!ped-up!!ped![I:staff +1] F,A,[I:staff -1]C_E!ped-up! | %6
!ped![I:staff +1] ([B,,F,]B,DF DB,G,>F,)!ped-up! |!ped! ([B,,F,]B,DF DB,G,>F,)!ped-up! | %8
 (B,,F,G,,B, A,,C x2 | C,2-) C,2- C,2 z2 | (C,_E,D,C, D,F,B,D) | CEDC x4 | F, F2 F2 F2 F | %13
 F, F2 F x2 x2 | F,_A,G,F, G,B,EG |[K:treble] F_AGF EGBe |[K:bass] (E2 =B,2 C2 D2 | E2 =E2 F4) | %18
!ped! ([B,,F,]B,DF DB,G,>F,)!ped-up! |!ped! ([B,,F,]B,DF DB,G,>F,)!ped-up! | %20
!ped! ([B,,F,]B,D>F)!ped-up!!ped! (!>![F,F]ECA,)!ped-up! | %21
 F,B,[I:staff -1]_D=E[I:staff +1] F,A,[I:staff -1]C_E | %22
!ped![I:staff +1] ([B,,F,]B,DF DB,G,>F,)!ped-up! |!ped! ([B,,F,]B,DF DB,G,>F,)!ped-up! | %24
 B,,F,G,,B, A,,C x2 | C,2- C,2- C,2 z2 | ([F,,F,]4 [_E,,_E,]4 | [D,,D,]4) [F,,F,]4 | %28
 [E,,E,]2 [D,,D,]2 [C,,C,]2 [D,,D,]2 | [E,,E,]2 [=E,,=E,]2 [F,,F,]4- | [F,,F,]4 [F,,F,]4 | %31
 [=E,,=E,]4 [G,,G,]4 | [F,,F,]2 [=E,,=E,]2 [D,,D,]2 [=C,,=C,]2 | %33
 [B,,,B,,]2 [D,,D,][_E,,_E,] [F,,F,]4 |!ped! ([B,,F,]B,DF DB,G,>F,)!ped-up! | %35
!ped! ([B,,F,]B,DF DB,G,>F,)!ped-up! |!ped! ([B,,F,]B,DF DB,G,>F,)!ped-up! | %37
!ped! ([B,,F,]B,DF DB,G,>F,)!ped-up! |!ped! ([B,,F,]B, D>F)!ped-up!!ped! (!>![F,F]ECA,)!ped-up! | %39
 F,B,!<(![I:staff -1]_D=E!<)![I:staff +1] F,A,[I:staff -1]C_E | %40
!ped![I:staff +1]{/_D,,} (_D,_G,[I:staff -1]B,_D)!ped-up!!ped![I:staff +1]{/D,,} (D,F,[I:staff -1]_CD)!ped-up! | %41
!ped![I:staff +1]{/_D,,} (_D,_G,[I:staff -1]B,_D)!ped-up!!ped![I:staff +1]{/D,,} (D,F,[I:staff -1]_A,D)!ped-up! | %42
[I:staff +1] [C,,C,]2 [B,,,B,,]2 [E,,E,]3 [C,,C,] | [F,,F,] z [F,F] z ([B,,F,]B,DF | %44
 DB,G,>F,) ([B,,F,]B,DF | D B,2 F,) F,2 F,>F, | !>![B,,F,]2 [B,,F,]>F, ([B,,B,]2 F,2) | %47
 [B,,F,]2 F,>F, B,,2 B,,>B,, | F,2 F,>F, F,4 | F,2 F,>F, (F,2 E,>D,) | %50
 ([B,D]2 [F,C]>[D,B,]) ([D,B,]2 C,>B,,) | !fermata!B,,2 x2 x4 |] %52
V:4
 x8 | x8 | x8 | x8 | x8 | D2 x2 C2 x2 | x8 | x8 | DF=EB FcDG | CF-[=B,F][_B,=E] A,CA,F, | %10
 (A,CB,A, B,DFB) | EGFE DFBd | GBFA EGDF | CFDF CFCA, | (DFED EGBe) | (_AcBA GBeg) | Be_Ad G=ABF | %17
 GBGB BAGF | x8 | x8 | x8 | D2 x2 C2 x2 | x8 | x8 | DF=EB FcDG | CF-[=B,F][_B,=E] A,CA,F, | x8 | %27
 x8 | x8 | x8 | x8 | x8 | x8 | x8 | x8 | x8 | x8 | x8 | x8 | D2 x2 C2 x2 | x8 | x8 | %42
 =A,_E_A,=D =G,EAB | FBEA DFBd | x8 | x8 | x8 | x8 | x4 D2 [_D=E]2 | [C_E]4 (=D2!pp! C>B,) | x8 | %51
 x8 |] %52
V:5
 x8 | x8 | x8 | x8 | x8 | B,,2 x2 F,,2 x2 | x8 | x8 | B,,2 G,,2 A,,2 B,,=B,, | x2 C,,2 F,,2 x2 | %10
 F,,6 z2 | (F,4- [F,B,]DFB) | F,8 | F,4- F,2 z2 | B,,4- B,,2 z2 |[K:treble] B,4- B,2 z2 | %16
[K:bass] x8 | x8 | x8 | x8 | x8 | B,,2 x2 F,,2 x2 | x8 | x8 | B,,2 G,,2 A,,2 B,,=B,, | %25
 x2 C,,2 F,,2 x2 | x8 | x8 | x8 | x8 | x8 | x8 | x8 | x8 | x8 | x8 | x8 | x8 | x8 | %39
 B,,2 x2 F,,2 x2 | x8 | x8 | x8 | x8 | x8 | x4 B,,4 | x8 | x8 | B,,4 B,,2 B,,>B,, | B,,2 x2 B,,4 | %50
 B,,4 (B,,2 F,,>D,,) | !fermata!D,,2 z2 z4 |] %52

